flaticon/fitness/bottle-1.svg

<svg xmlns="http://www.w3.org/2000/svg" width="32" height="32" viewBox="0 0 24 24">
    <path d="M 16.277344 7.566406 C 16.792969 7.433594 17.199219 6.945312 17.199219 6.398438 L 17.199219 5.199219 C 17.199219 4.558594 16.679688 4 16 4 L 14.800781 4 L 14.800781 2.800781 C 14.800781 2.558594 14.640625 2.398438 14.398438 2.398438 L 13.601562 2.398438 L 13.601562 0.398438 C 13.601562 0.160156 13.441406 0 13.199219 0 L 10.800781 0 C 10.558594 0 10.398438 0.160156 10.398438 0.398438 L 10.398438 2.398438 L 9.601562 2.398438 C 9.359375 2.398438 9.199219 2.558594 9.199219 2.800781 L 9.199219 4 L 8 4 C 7.359375 4 6.800781 4.519531 6.800781 5.199219 L 6.800781 6.398438 C 6.800781 6.964844 7.207031 7.46875 7.773438 7.578125 C 8.160156 8.191406 8.398438 9.148438 8.398438 10 C 8.398438 10.839844 8.132812 11.777344 7.785156 12.421875 C 7.238281 12.523438 6.800781 12.996094 6.800781 13.601562 L 6.800781 22.800781 C 6.800781 23.441406 7.320312 24 8 24 L 16 24 C 16.640625 24 17.199219 23.441406 17.199219 22.800781 L 17.199219 13.601562 C 17.199219 13.035156 16.792969 12.53125 16.226562 12.421875 C 15.839844 11.808594 15.601562 10.851562 15.601562 10 C 15.601562 9.363281 16.035156 8.167969 16.277344 7.566406 Z M 15.320312 12.398438 L 8.679688 12.398438 C 9 11.679688 9.199219 10.800781 9.199219 10 C 9.199219 9.199219 9 8.320312 8.679688 7.601562 L 15.398438 7.601562 C 15.160156 8.238281 14.800781 9.320312 14.800781 10 C 14.800781 10.800781 15 11.679688 15.320312 12.398438 Z M 11.199219 0.800781 L 12.800781 0.800781 L 12.800781 2.398438 L 11.199219 2.398438 Z M 10 3.199219 L 14 3.199219 L 14 4 L 10 4 Z M 7.601562 5.199219 C 7.601562 5 7.761719 4.800781 8 4.800781 L 16 4.800781 C 16.199219 4.800781 16.398438 4.960938 16.398438 5.199219 L 16.398438 6.398438 C 16.398438 6.601562 16.238281 6.800781 16 6.800781 L 8 6.800781 C 7.800781 6.800781 7.601562 6.640625 7.601562 6.398438 Z M 16.398438 22.800781 C 16.398438 23 16.238281 23.199219 16 23.199219 L 8 23.199219 C 7.800781 23.199219 7.601562 23.039062 7.601562 22.800781 L 7.601562 13.601562 C 7.601562 13.398438 7.761719 13.199219 8 13.199219 L 16 13.199219 C 16.199219 13.199219 16.398438 13.359375 16.398438 13.601562 Z M 16.398438 22.800781"/>
    <path d="M 13.601562 17.601562 L 11.359375 17.601562 L 13.078125 15.878906 C 13.238281 15.71875 13.238281 15.480469 13.078125 15.320312 C 12.921875 15.160156 12.679688 15.160156 12.519531 15.320312 L 10.121094 17.71875 C 10 17.839844 10 18.039062 10.039062 18.199219 C 10.078125 18.359375 10.238281 18.441406 10.398438 18.441406 L 12.71875 18.441406 L 10.878906 20.558594 C 10.71875 20.71875 10.761719 20.960938 10.917969 21.121094 C 11 21.160156 11.121094 21.199219 11.199219 21.199219 C 11.320312 21.199219 11.441406 21.160156 11.519531 21.078125 L 13.917969 18.28125 C 14 18.160156 14.039062 18 13.960938 17.839844 C 13.878906 17.679688 13.761719 17.601562 13.601562 17.601562 Z M 13.601562 17.601562"/>
</svg>

<svg xmlns="http://www.w3.org/2000/svg" width="32" height="32" viewBox="0 0 24 24">
    <path d="M16.277 7.566c.516-.132.922-.62.922-1.168V5.2C17.2 4.56 16.68 4 16 4h-1.2V2.8c0-.241-.16-.402-.402-.402h-.796v-2c0-.238-.16-.398-.403-.398h-2.398c-.242 0-.403.16-.403.398v2h-.796c-.243 0-.403.16-.403.403V4H8c-.64 0-1.2.52-1.2 1.2v1.198c0 .567.407 1.07.973 1.18.387.613.625 1.57.625 2.422 0 .84-.265 1.777-.613 2.422a1.198 1.198 0 0 0-.984 1.18V22.8C6.8 23.44 7.32 24 8 24h8c.64 0 1.2-.559 1.2-1.2v-9.198c0-.567-.407-1.07-.973-1.18-.387-.613-.625-1.57-.625-2.422 0-.637.433-1.832.675-2.434zm-.957 4.832H8.68C9 11.68 9.2 10.801 9.2 10c0-.8-.2-1.68-.52-2.398h6.718c-.238.636-.597 1.718-.597 2.398 0 .8.199 1.68.52 2.398zM11.2.801h1.6v1.597h-1.6zM10 3.199h4V4h-4zm-2.398 2A.4.4 0 0 1 8 4.801h8a.4.4 0 0 1 .398.398v1.2A.4.4 0 0 1 16 6.8H8a.4.4 0 0 1-.398-.403zm8.796 17.602a.4.4 0 0 1-.398.398H8a.4.4 0 0 1-.398-.398v-9.2A.4.4 0 0 1 8 13.2h8a.4.4 0 0 1 .398.403zm0 0"/>
    <path d="M13.602 17.602h-2.243l1.72-1.723a.385.385 0 0 0 0-.559.385.385 0 0 0-.56 0l-2.398 2.399c-.121.12-.121.32-.082.48.04.16.2.242.36.242h2.32l-1.84 2.118c-.16.16-.117.402.039.562.082.04.203.078.281.078.121 0 .242-.039.32-.12l2.399-2.798a.432.432 0 0 0 .043-.441c-.082-.16-.2-.238-.36-.238zm0 0"/>
</svg>
